**harm	**harte	**kern	**silbe	**rhyme	**timestamp	**phrase	**leadinstrument
*M4/4	*M4/4	*ICvox	*	*	*	*	*
*	*	*VRlead	*	*	*	*	*
*	*	*Hstimme	*	*	*	*	*
*F:	*F:	*F:	*	*	*	*	*
*	*	*M4/4	*	*	*	*	*
*	*	*clefG2	*	*	*	*	*
1r;	N	r;	.	.	0	.	r
=1	=1	=1	=1	=1	=1	=1	=1
*>Letter>A	*>Letter>A	*>Letter>A	*>Letter>A	*>Letter>A	*>Letter>A	*>Letter>A	*>Letter>A
*>Label>Chorus	*>Label>Chorus	*>Label>Chorus	*>Label>Chorus	*>Label>Chorus	*>Label>Chorus	*>Label>Chorus	*>Label>Chorus
2IV	B-:maj	8d	All	.	0.255	newline	voice
.	.	8d	the	.	.	.	.
.	.	4d	world	.	.	.	.
2I	F:maj	8c	o-	.	1.223	.	voice
.	.	8c	-ver,	.	.	.	.
.	.	4f	so	.	.	.	.
=2	=2	=2	=2	=2	=2	=2	=2
2V	C:maj	8d	ea-	.	2.191	.	voice
.	.	8d	-sy	.	.	.	.
.	.	8d	to	.	.	.	.
.	.	[8c	see	A	.	.	.
2I	F:maj	4c]	_	.	3.159	.	voice
.	.	4r	.	.	.	.	.
=3	=3	=3	=3	=3	=3	=3	=3
2IV	B-:maj	8d	Pe-	.	4.127	.	voice
.	.	8d	-o-	.	.	.	.
.	.	8d	-ple	.	.	.	.
.	.	8d	every-	.	.	.	.
2I	F:maj	4c	-where	.	5.095	.	voice
.	.	4c	just	.	.	.	.
=4	=4	=4	=4	=4	=4	=4	=4
2V	C:maj	8B-	wan-	.	6.062	.	voice
.	.	8c	-na	.	.	.	.
.	.	8B-	be	.	.	.	.
.	.	[8A	free	A	.	.	.
2I	F:maj	4A]	_	.	7.03	.	voice
.	.	4r	.	.	.	.	.
=5	=5	=5	=5	=5	=5	=5	=5
2IV	B-:maj	8d	Lis-	.	7.998	newline	voice
.	.	8d	-ten,	.	.	.	.
.	.	4d	please	.	.	.	.
2I	F:maj	8c	lis-	.	8.931	.	voice
.	.	8c	-ten,	.	.	.	.
.	.	8f	that's	.	.	.	.
.	.	8f	the	.	.	.	.
=6	=6	=6	=6	=6	=6	=6	=6
2V	C:maj	8f	way	.	9.863	.	voice
.	.	8f	it	.	.	.	.
.	.	4f	should	.	.	.	.
2I	F:maj	8d	be	A	10.796	.	voice
.	.	8c	_	.	.	.	.
.	.	4r	.	.	.	.	.
=7	=7	=7	=7	=7	=7	=7	=7
2IV	B-:maj	8d	Deep	.	11.728	.	voice
.	.	8d	in	.	.	.	.
.	.	8d	the	.	.	.	.
.	.	[8c	val-	.	.	.	.
2I	F:maj	8c]	_	.	12.661	.	voice
.	.	8c	-ley,	A	.	.	.
.	.	8c	peo-	.	.	.	.
.	.	8c	-ple	.	.	.	.
=8	=8	=8	=8	=8	=8	=8	=8
*M2/4	*M2/4	*M2/4	*	*	*M2/4	*M2/4	*M2/4
2V	C:maj	8B-	got	.	13.594	.	voice
.	.	8c	to	.	.	.	.
.	.	4B-	be	A	.	.	.
=9	=9	=9	=9	=9	=9	=9	=9
*>Letter>B	*>Letter>B	*>Letter>B	*>Letter>B	*>Letter>B	*>Letter>B	*>Letter>B	*>Letter>B
*>Label>Trans	*>Label>Trans	*>Label>Trans	*>Label>Trans	*>Label>Trans	*>Label>Trans	*>Label>Trans	*>Label>Trans
*M4/4	*M4/4	*	*	*	*M4/4	*M4/4	*M4/4
1I	F:maj	4A	free	A	14.526	newline	trumpet
.	.	4r	.	.	.	.	.
.	.	2r	.	.	.	.	.
=10	=10	=10	=10	=10	=10	=10	=10
1V	C:maj	1r	.	.	16.447	.	trumpet
=11	=11	=11	=11	=11	=11	=11	=11
1I	F:maj	1r	.	.	18.368	.	trumpet
=12	=12	=12	=12	=12	=12	=12	=12
1V	C:maj	1r	.	.	20.29	.	trumpet
=13	=13	=13	=13	=13	=13	=13	=13
*>Letter>C	*>Letter>C	*>Letter>C	*>Letter>C	*>Letter>C	*>Letter>C	*>Letter>C	*>Letter>C
*>Label>Verse	*>Label>Verse	*>Label>Verse	*>Label>Verse	*>Label>Verse	*>Label>Verse	*>Label>Verse	*>Label>Verse
1I	F:maj	2r	.	.	22.211	newline	voice
.	.	4A	You	.	.	.	.
.	.	8B-	should	.	.	.	.
.	.	[8c	see	A	.	.	.
=14	=14	=14	=14	=14	=14	=14	=14
1V	C:maj	8c]	_	.	24.098	.	voice
.	.	8d	_	.	.	.	.
.	.	4r	.	.	.	.	.
.	.	4r	.	.	.	.	.
.	.	8f	what	.	.	.	.
.	.	8f	a	.	.	.	.
=15	=15	=15	=15	=15	=15	=15	=15
1vi	D:min	8f	love-	.	25.984	.	voice
.	.	8e	-ly,	.	.	.	.
.	.	8f	love-	.	.	.	.
.	.	8e	-ly	.	.	.	.
.	.	8f	world	.	.	.	.
.	.	8e	this	.	.	.	.
.	.	8d	could	.	.	.	.
.	.	8d	be	A	.	.	.
=16	=16	=16	=16	=16	=16	=16	=16
1iii	A:min	4.c	_	.	27.871	.	voice
.	.	8d	_	.	.	.	.
.	.	2r	.	.	.	.	.
=17	=17	=17	=17	=17	=17	=17	=17
1IV	B-:maj	2r	.	.	29.758	newline	voice
.	.	8e	E-	.	.	.	.
.	.	8e	-ve-	.	.	.	.
.	.	8d	-ry-	.	.	.	.
.	.	[8c	-one	.	.	.	.
=18	=18	=18	=18	=18	=18	=18	=18
1I	F:maj	8c]	_	.	31.622	.	voice
.	.	4A	learned	.	.	.	.
.	.	8A	to	.	.	.	.
.	.	4B-	live	.	.	.	.
.	.	8A	to-	.	.	.	.
.	.	[8A	-ge-	.	.	.	.
=19	=19	=19	=19	=19	=19	=19	=19
1r	N	8A]	_	.	33.487	.	voice
.	.	8G	-ther	b	.	.	.
.	.	4r	.	.	.	.	.
.	.	2r	.	.	.	.	.
=20	=20	=20	=20	=20	=20	=20	=20
1r	N	8r	.	.	35.351	.	voice
.	.	8d	han	.	.	.	.
.	.	4A	_	.	.	.	.
.	.	4c	_	.	.	.	.
.	.	4d	_	.	.	.	.
=21	=21	=21	=21	=21	=21	=21	=21
1I	F:maj	2r	.	.	37.216	newline	voice
.	.	4A	Seems	.	.	.	.
.	.	8B-	to	.	.	.	.
.	.	[8c	me	A	.	.	.
=22	=22	=22	=22	=22	=22	=22	=22
1V	C:maj	8c]	_	.	39.129	.	voice
.	.	8d	_	.	.	.	.
.	.	4r	.	.	.	.	.
.	.	4r	.	.	.	.	.
.	.	8f	such	.	.	.	.
.	.	8f	an	.	.	.	.
=23	=23	=23	=23	=23	=23	=23	=23
1vi	D:min	8f	ea-	.	41.042	.	voice
.	.	8e	-sy,	.	.	.	.
.	.	8f	eas-	.	.	.	.
.	.	8e	-sy	.	.	.	.
.	.	4f	thing	.	.	.	.
.	.	8d	should	.	.	.	.
.	.	8d	be	A	.	.	.
=24	=24	=24	=24	=24	=24	=24	=24
1iii	A:min	4.c	_	.	42.955	.	voice
.	.	8d	_	.	.	.	.
.	.	2r	.	.	.	.	.
=25	=25	=25	=25	=25	=25	=25	=25
1IV	B-:maj	8r	.	.	44.868	newline	voice
.	.	8c	Uh	.	.	.	.
.	.	4f	Why	.	.	.	.
.	.	8f	can't	.	.	.	.
.	.	8e	you	.	.	.	.
.	.	8d	and	.	.	.	.
.	.	[8c	me	A	.	.	.
=26	=26	=26	=26	=26	=26	=26	=26
1I	F:maj	8c]	_	.	46.702	.	voice
.	.	4A	learn	.	.	.	.
.	.	8A	to	.	.	.	.
.	.	4B-	love	.	.	.	.
.	.	4A	one	.	.	.	.
=27	=27	=27	=27	=27	=27	=27	=27
1r	N	8A	'o-	.	48.536	.	voice
.	.	8G	-ther	b	.	.	.
.	.	4r	.	.	.	.	.
.	.	2r	.	.	.	.	.
=28	=28	=28	=28	=28	=28	=28	=28
1r	N	2a	No,	.	50.37	.	voice
.	.	8g	hea-	.	.	.	.
.	.	8f	-ven	.	.	.	.
.	.	4f	now	.	.	.	.
=29	=29	=29	=29	=29	=29	=29	=29
*>Letter>A	*>Letter>A	*>Letter>A	*>Letter>A	*>Letter>A	*>Letter>A	*>Letter>A	*>Letter>A
*>Label>Chorus	*>Label>Chorus	*>Label>Chorus	*>Label>Chorus	*>Label>Chorus	*>Label>Chorus	*>Label>Chorus	*>Label>Chorus
2IV	B-:maj	8d	All	.	52.205	newline	voice
.	.	8d	the	.	.	.	.
.	.	4d	world	.	.	.	.
2I	F:maj	8c	o-	.	53.163	.	voice
.	.	8c	-ver,	.	.	.	.
.	.	4f	so	.	.	.	.
=30	=30	=30	=30	=30	=30	=30	=30
2V	C:maj	8g	ea-	.	54.122	.	voice
.	.	8f	-sy	.	.	.	.
.	.	8f	to	.	.	.	.
.	.	8c	see	A	.	.	.
2I	F:maj	4r	.	.	55.08	.	voice
.	.	4f	Uh	.	.	.	.
=31	=31	=31	=31	=31	=31	=31	=31
2IV	B-:maj	8d	Pe-	.	56.039	.	voice
.	.	8d	-o-	.	.	.	.
.	.	8d	-ple	.	.	.	.
.	.	8d	every-	.	.	.	.
2I	F:maj	4c	-where	.	56.997	.	voice
.	.	4c	just	.	.	.	.
=32	=32	=32	=32	=32	=32	=32	=32
2V	C:maj	8B-	wan-	.	57.956	.	voice
.	.	8B-	-na	.	.	.	.
.	.	8B-	be	.	.	.	.
.	.	[8A	free	A	.	.	.
2I	F:maj	4A]	_	.	58.914	.	voice
.	.	8r	.	.	.	.	.
.	.	8A	I	.	.	.	.
=33	=33	=33	=33	=33	=33	=33	=33
2IV	B-:maj	8d	can't	.	59.873	newline	voice
.	.	8d	un-	.	.	.	.
.	.	8d	-der-	.	.	.	.
.	.	[8c	-stand	.	.	.	.
2I	F:maj	8c]	_	.	60.83	.	voice
.	.	8c	it,	.	.	.	.
.	.	4f	so	.	.	.	.
=34	=34	=34	=34	=34	=34	=34	=34
2V	C:maj	8d	sim-	.	61.787	.	voice
.	.	8d	-ple	.	.	.	.
.	.	8d	to	.	.	.	.
.	.	8c	me	A	.	.	.
2I	F:maj	2r	.	.	62.744	.	voice
=35	=35	=35	=35	=35	=35	=35	=35
2IV	B-:maj	8d	Peo-	.	63.701	.	voice
.	.	8d	-ple	.	.	.	.
.	.	8d	every-	.	.	.	.
.	.	[8c	-where	.	.	.	.
2I	F:maj	4c]	_	.	64.658	.	voice
.	.	4a	just	.	.	.	.
=36	=36	=36	=36	=36	=36	=36	=36
*M2/4	*M2/4	*M2/4	*	*	*M2/4	*M2/4	*M2/4
2V	C:maj	8g	goy	.	65.615	.	voice
.	.	8f	to	.	.	.	.
.	.	4f	be	A	.	.	.
=37	=37	=37	=37	=37	=37	=37	=37
*>Letter>B	*>Letter>B	*>Letter>B	*>Letter>B	*>Letter>B	*>Letter>B	*>Letter>B	*>Letter>B
*>Label>Trans	*>Label>Trans	*>Label>Trans	*>Label>Trans	*>Label>Trans	*>Label>Trans	*>Label>Trans	*>Label>Trans
*M4/4	*M4/4	*	*	*	*M4/4	*M4/4	*M4/4
1I	F:maj	4f	free	A	66.572	newline	trumpet
.	.	4r	.	.	.	.	.
.	.	2r	.	.	.	.	.
=38	=38	=38	=38	=38	=38	=38	=38
1V	C:maj	1r	.	.	68.474	.	trumpet
=39	=39	=39	=39	=39	=39	=39	=39
1I	F:maj	1r	.	.	70.375	.	trumpet
=40	=40	=40	=40	=40	=40	=40	=40
1V	C:maj	1r	.	.	72.277	.	trumpet
=41	=41	=41	=41	=41	=41	=41	=41
*>Letter>C	*>Letter>C	*>Letter>C	*>Letter>C	*>Letter>C	*>Letter>C	*>Letter>C	*>Letter>C
*>Label>Verse	*>Label>Verse	*>Label>Verse	*>Label>Verse	*>Label>Verse	*>Label>Verse	*>Label>Verse	*>Label>Verse
1I	F:maj	4.r	.	.	74.179	newline	voice
.	.	8A	If	.	.	.	.
.	.	4A	there's	.	.	.	.
.	.	8B-	a	.	.	.	.
.	.	[8c	man	C	.	.	.
=42	=42	=42	=42	=42	=42	=42	=42
1V	C:maj	8c]	_	.	76.073	.	voice
.	.	8d	_	.	.	.	.
.	.	4r	.	.	.	.	.
.	.	4r	.	.	.	.	.
.	.	8f	who	.	.	.	.
.	.	8f	is	.	.	.	.
=43	=43	=43	=43	=43	=43	=43	=43
1vi	D:min	8f	down	.	77.967	.	voice
.	.	8e	and	.	.	.	.
.	.	8f	needs	.	.	.	.
.	.	8e	a	.	.	.	.
.	.	4f	hel-	.	.	.	.
.	.	8d	-ping	.	.	.	.
.	.	8d	hand	C	.	.	.
=44	=44	=44	=44	=44	=44	=44	=44
1iii	A:min	4.c	_	.	79.861	.	voice
.	.	8d	_	.	.	.	.
.	.	4r	.	.	.	.	.
.	.	8f	All	.	.	.	.
.	.	8e	it	.	.	.	.
=45	=45	=45	=45	=45	=45	=45	=45
1IV	B-:maj	8f	takes	.	81.755	newline	voice
.	.	8e	is	.	.	.	.
.	.	8f	you	.	.	.	.
.	.	8e	to	.	.	.	.
.	.	4f	un-	.	.	.	.
.	.	8d	-der-	.	.	.	.
.	.	[8c	-stand	C	.	.	.
=46	=46	=46	=46	=46	=46	=46	=46
1I	F:maj	8c]	_	.	83.603	.	voice
.	.	4A	and	.	.	.	.
.	.	8A	to	.	.	.	.
.	.	8B-	pull	.	.	.	.
.	.	4A	him	.	.	.	.
.	.	[8A	through	D	.	.	.
=47	=47	=47	=47	=47	=47	=47	=47
1r	N	8A]	_	.	85.451	.	voice
.	.	8G	_	.	.	.	.
.	.	4r	.	.	.	.	.
.	.	2r	.	.	.	.	.
=48	=48	=48	=48	=48	=48	=48	=48
1r	N	8d	Ah	.	87.299	.	voice
.	.	8d	Ah	.	.	.	.
.	.	4A	ha	.	.	.	.
.	.	4c	_	.	.	.	.
.	.	4d	_	.	.	.	.
=49	=49	=49	=49	=49	=49	=49	=49
1I	F:maj	4.r	.	.	89.147	newline	voice
.	.	8d	It	.	.	.	.
.	.	4f	seems	.	.	.	.
.	.	8d	to	.	.	.	.
.	.	[8f	me,	A	.	.	.
=50	=50	=50	=50	=50	=50	=50	=50
1V	C:maj	8f]	_	.	91.046	.	voice
.	.	8g	_	.	.	.	.
.	.	4r	.	.	.	.	.
.	.	8r	.	.	.	.	.
.	.	8c	we	.	.	.	.
.	.	8a	got	.	.	.	.
.	.	8a	to	.	.	.	.
=51	=51	=51	=51	=51	=51	=51	=51
1vi	D:min	8a	solve	.	92.946	.	voice
.	.	8a	it	.	.	.	.
.	.	8a	in-	.	.	.	.
.	.	8g	-di-	.	.	.	.
.	.	8a	-vi-	.	.	.	.
.	.	8g	-du-	D	.	.	.
.	.	8f	-a-	.	.	.	.
.	.	8g	-ly	A	.	.	.
=52	=52	=52	=52	=52	=52	=52	=52
1iii	A:min	4d	_	.	94.845	.	voice
.	.	8r	.	.	.	.	.
.	.	8f	ah	.	.	.	.
.	.	8r	.	.	.	.	.
.	.	8g	ah	.	.	.	.
.	.	4r	.	.	.	.	.
=53	=53	=53	=53	=53	=53	=53	=53
1IV	B-:maj	8r	.	.	96.744	newline	voice
.	.	8c	And	.	.	.	.
.	.	8f	I'll	.	.	.	.
.	.	8r	.	.	.	.	.
.	.	8f	do	.	.	.	.
.	.	8e	un-	.	.	.	.
.	.	8d	-to	.	.	.	.
.	.	[8c	you	D	.	.	.
=54	=54	=54	=54	=54	=54	=54	=54
1I	F:maj	8c]	_	.	98.576	.	voice
.	.	4A	what	.	.	.	.
.	.	8A	you	D	.	.	.
.	.	8B-	do	D	.	.	.
.	.	8r	.	.	.	.	.
.	.	8A	to	.	.	.	.
.	.	8A	me	A	.	.	.
=55	=55	=55	=55	=55	=55	=55	=55
1r	N	8G	_	.	100.409	.	voice
.	.	8r	.	.	.	.	.
.	.	4r	.	.	.	.	.
.	.	4r	.	.	.	.	.
.	.	4f	Said	.	.	.	.
=56	=56	=56	=56	=56	=56	=56	=56
1r	N	4a	no,	.	102.241	.	voice
.	.	4a	no,	.	.	.	.
.	.	4g	no	.	.	.	.
.	.	8c	There'll	.	.	.	.
.	.	8c	be	.	.	.	.
=57	=57	=57	=57	=57	=57	=57	=57
*>Letter>A	*>Letter>A	*>Letter>A	*>Letter>A	*>Letter>A	*>Letter>A	*>Letter>A	*>Letter>A
*>Label>Chorus	*>Label>Chorus	*>Label>Chorus	*>Label>Chorus	*>Label>Chorus	*>Label>Chorus	*>Label>Chorus	*>Label>Chorus
2IV	B-:maj	8d	shou-	.	104.073	newline	voice
.	.	8d	-tin'	.	.	.	.
.	.	8d	from	.	.	.	.
.	.	8d	the	.	.	.	.
2I	F:maj	8c	moun-	.	105.031	.	voice
.	.	8c	-tains	.	.	.	.
.	.	4f	on	.	.	.	.
=58	=58	=58	=58	=58	=58	=58	=58
2V	C:maj	8d	out	.	105.988	.	voice
.	.	4d	to	.	.	.	.
.	.	8d	sea	A	.	.	.
2I	F:maj	2r	.	.	106.946	.	voice
=59	=59	=59	=59	=59	=59	=59	=59
2IV	B-:maj	8d	No	.	107.903	.	voice
.	.	8d	two	.	.	.	.
.	.	8d	ways	.	.	.	.
.	.	8d	a-	.	.	.	.
2I	F:maj	8c	-bout	.	108.861	.	voice
.	.	8c	it,	.	.	.	.
.	.	8c	peo-	.	.	.	.
.	.	8c	-ple	.	.	.	.
=60	=60	=60	=60	=60	=60	=60	=60
2V	C:maj	8B-	have	.	109.818	.	voice
.	.	8c	to	.	.	.	.
.	.	4B-	be	.	.	.	.
2I	F:maj	4A	free	A	110.775	.	voice
.	.	4r	.	.	.	.	.
=61	=61	=61	=61	=61	=61	=61	=61
2IV	B-:maj	8d	Ask	.	111.733	newline	voice
.	.	8d	me	.	.	.	.
.	.	8d	my	.	.	.	.
.	.	8d	o-	.	.	.	.
2I	F:maj	8c	-pi-	.	112.693	.	voice
.	.	8c	-nion,	.	.	.	.
.	.	8f	my	.	.	.	.
.	.	8f	o-	.	.	.	.
=62	=62	=62	=62	=62	=62	=62	=62
2V	C:maj	8d	-pi-	.	113.652	.	voice
.	.	8c	-nion	.	.	.	.
.	.	4c	will	.	.	.	.
2I	F:maj	8c	be	A	114.612	.	voice
.	.	8r	.	.	.	.	.
.	.	8c	It's	.	.	.	.
.	.	8c	a	.	.	.	.
=63	=63	=63	=63	=63	=63	=63	=63
2IV	B-:maj	8f	na-	.	115.571	.	voice
.	.	8f	-tural	.	.	.	.
.	.	8f	si-	.	.	.	.
.	.	8f	-tu-	.	.	.	.
2I	F:maj	8f	-a-	.	116.531	.	voice
.	.	8f	-tion	.	.	.	.
.	.	8a	for	.	.	.	.
.	.	8f	a	.	.	.	.
=64	=64	=64	=64	=64	=64	=64	=64
*M2/4	*M2/4	*M2/4	*	*	*M2/4	*M2/4	*M2/4
2V	C:maj	8f	man	.	117.491	.	voice
.	.	8f	to	.	.	.	.
.	.	4f	be	A	.	.	.
=65	=65	=65	=65	=65	=65	=65	=65
*>Letter>B	*>Letter>B	*>Letter>B	*>Letter>B	*>Letter>B	*>Letter>B	*>Letter>B	*>Letter>B
*>Label>Trans	*>Label>Trans	*>Label>Trans	*>Label>Trans	*>Label>Trans	*>Label>Trans	*>Label>Trans	*>Label>Trans
*M4/4	*M4/4	*	*	*	*M4/4	*M4/4	*M4/4
1I	F:maj	4f	free	A	118.45	newline	trumpet
.	.	4r	.	.	.	.	.
.	.	2r	.	.	.	.	.
=66	=66	=66	=66	=66	=66	=66	=66
1V	C:maj	1r	.	.	120.341	.	trumpet
=67	=67	=67	=67	=67	=67	=67	=67
1I	F:maj	1r	.	.	122.232	.	trumpet
=68	=68	=68	=68	=68	=68	=68	=68
1V	C:maj	8a-	Get	.	124.122	.	trumpet
.	.	8a-	right	.	.	.	.
.	.	8g	on	.	.	.	.
.	.	8f	board	.	.	.	.
.	.	8d	_	.	.	.	.
.	.	[8g	now	.	.	.	.
.	.	8g]	_	.	.	.	.
.	.	8r	.	.	.	.	.
=69	=69	=69	=69	=69	=69	=69	=69
*>Letter>D	*>Letter>D	*>Letter>D	*>Letter>D	*>Letter>D	*>Letter>D	*>Letter>D	*>Letter>D
*>Label>Bridge	*>Label>Bridge	*>Label>Bridge	*>Label>Bridge	*>Label>Bridge	*>Label>Bridge	*>Label>Bridge	*>Label>Bridge
1I	F:maj	1r	.	.	126.013	newline	trumpet
=70	=70	=70	=70	=70	=70	=70	=70
1-III	A-:maj	1r	.	.	127.896	.	trumpet
=71	=71	=71	=71	=71	=71	=71	=71
1-VI	D-:maj	1r	.	.	129.778	.	trumpet
=72	=72	=72	=72	=72	=72	=72	=72
1V	C:maj	2r	.	.	131.661	.	trumpet
.	.	8a-	yeah	.	.	.	.
.	.	8g	_	.	.	.	.
.	.	8f	_	.	.	.	.
.	.	8d	_	.	.	.	.
=73	=73	=73	=73	=73	=73	=73	=73
*>Letter>A	*>Letter>A	*>Letter>A	*>Letter>A	*>Letter>A	*>Letter>A	*>Letter>A	*>Letter>A
*>Label>Chorus	*>Label>Chorus	*>Label>Chorus	*>Label>Chorus	*>Label>Chorus	*>Label>Chorus	*>Label>Chorus	*>Label>Chorus
2IV	B-:maj	8f	Oh,	.	133.543	newline	voice
.	.	8f	what	.	.	.	.
.	.	8d	a	.	.	.	.
.	.	[8f	fee-	.	.	.	.
2I	F:maj	8f]	_	.	134.502	.	voice
.	.	8d	-lin's	.	.	.	.
.	.	4a	just	.	.	.	.
=74	=74	=74	=74	=74	=74	=74	=74
2V	C:maj	8a	come	.	135.462	.	voice
.	.	8a	o-	.	.	.	.
.	.	8g	-ver	.	.	.	.
.	.	[8f	me	A	.	.	.
2I	F:maj	8f]	_	.	136.421	.	voice
.	.	8r	.	.	.	.	.
.	.	8f	It's	.	.	.	.
.	.	8f	e-	.	.	.	.
=75	=75	=75	=75	=75	=75	=75	=75
2IV	B-:maj	8f	-nough	.	137.38	.	voice
.	.	8f	to	.	.	.	.
.	.	8f	move	.	.	.	.
.	.	8f	a	.	.	.	.
2I	F:maj	8e	moun-	.	138.339	.	voice
.	.	8f	-tain,	.	.	.	.
.	.	8a	make	.	.	.	.
.	.	8a	a	.	.	.	.
=76	=76	=76	=76	=76	=76	=76	=76
2V	C:maj	4g	blind	.	139.299	.	voice
.	.	4f	man	.	.	.	.
2I	F:maj	4f	see	A	140.258	.	voice
.	.	4r	.	.	.	.	.
=77	=77	=77	=77	=77	=77	=77	=77
2IV	B-:maj	8d	Eve-	.	141.217	newline	voice
.	.	8d	-ry-	.	.	.	.
.	.	8d	-bo-	.	.	.	.
.	.	8d	-dy's	.	.	.	.
2I	F:maj	8c	dan-	.	142.16	.	voice
.	.	8c	-cin',	.	.	.	.
.	.	8f	come	.	.	.	.
.	.	[8d	on,	.	.	.	.
=78	=78	=78	=78	=78	=78	=78	=78
2V	C:maj	8d]	_	.	143.102	.	voice
.	.	8d	let's	.	.	.	.
.	.	4d	go	.	.	.	.
2I	F:maj	4c	see	A	144.045	.	voice
.	.	8r	.	.	.	.	.
.	.	8c	It's	.	.	.	.
=79	=79	=79	=79	=79	=79	=79	=79
2IV	B-:maj	8d	peace	.	144.987	.	voice
.	.	8d	in	.	.	.	.
.	.	8d	the	.	.	.	.
.	.	[8c	val-	.	.	.	.
2I	F:maj	8c]	_	.	145.93	.	voice
.	.	8c	-ley,	A	.	.	.
.	.	8a	now	.	.	.	.
.	.	8a	they	.	.	.	.
=80	=80	=80	=80	=80	=80	=80	=80
*M2/4	*M2/4	*M2/4	*	*	*M2/4	*M2/4	*M2/4
2V	C:maj	8g	want	.	146.872	.	voice
.	.	8f	to	.	.	.	.
.	.	4f	go	.	.	.	.
=81	=81	=81	=81	=81	=81	=81	=81
*>Letter>B	*>Letter>B	*>Letter>B	*>Letter>B	*>Letter>B	*>Letter>B	*>Letter>B	*>Letter>B
*>Label>Trans	*>Label>Trans	*>Label>Trans	*>Label>Trans	*>Label>Trans	*>Label>Trans	*>Label>Trans	*>Label>Trans
*M4/4	*M4/4	*	*	*	*M4/4	*M4/4	*M4/4
1I	F:maj	4f	free	A	147.815	newline	trumpet
.	.	4r	.	.	.	.	.
.	.	2r	.	.	.	.	.
=82	=82	=82	=82	=82	=82	=82	=82
1V	C:maj	1r	.	.	149.736	.	trumpet
=83	=83	=83	=83	=83	=83	=83	=83
1I	F:maj	1r	.	.	151.656	.	trumpet
=84	=84	=84	=84	=84	=84	=84	=84
1V	C:maj	1r	.	.	153.577	.	trumpet
=85	=85	=85	=85	=85	=85	=85	=85
*>Letter>B2	*>Letter>B2	*>Letter>B2	*>Letter>B2	*>Letter>B2	*>Letter>B2	*>Letter>B2	*>Letter>B2
*>Label>Outro	*>Label>Outro	*>Label>Outro	*>Label>Outro	*>Label>Outro	*>Label>Outro	*>Label>Outro	*>Label>Outro
1I	F:maj	1r	.	.	155.498	newline	guitar
=86	=86	=86	=86	=86	=86	=86	=86
1V	C:maj	1r	.	.	157.4	.	guitar
=87	=87	=87	=87	=87	=87	=87	=87
1I	F:maj	1r	.	.	159.302	.	guitar
=88	=88	=88	=88	=88	=88	=88	=88
1V	C:maj	1r	.	.	161.204	.	guitar
=89	=89	=89	=89	=89	=89	=89	=89
1I	F:maj	1r	.	.	163.106	newline	guitar
=90	=90	=90	=90	=90	=90	=90	=90
1V	C:maj	1r	.	.	164.99	.	guitar
=91	=91	=91	=91	=91	=91	=91	=91
1I	F:maj	1r	.	.	166.874	.	guitar
=92	=92	=92	=92	=92	=92	=92	=92
1V	C:maj	1r	.	.	168.758	.	guitar
=93	=93	=93	=93	=93	=93	=93	=93
*>Label>>Fadeout	*>Label>>Fadeout	*>Label>>Fadeout	*>Label>>Fadeout	*>Label>>Fadeout	*>Label>>Fadeout	*>Label>>Fadeout	*>Label>>Fadeout
1I	F:maj	1r	.	.	170.642	newline	guitar
=94	=94	=94	=94	=94	=94	=94	=94
1V	C:maj	1r	.	.	171.803	.	guitar
=95	=95	=95	=95	=95	=95	=95	=95
1I	F:maj	1r	.	.	172.965	.	guitar
=96	=96	=96	=96	=96	=96	=96	=96
1V	C:maj	1r	.	.	174.126	.	guitar
=97	=97	=97	=97	=97	=97	=97	=97
1I	F:maj	1r	.	.	175.287	.	guitar
=98	=98	=98	=98	=98	=98	=98	=98
1V	C:maj	1r	.	.	176.448	.	guitar
1r;	N	r;	.	.	177.609	.	r
1r;	N	r;	.	.	181.682	.	r
*-	*-	*-	*-	*-	*-	*-	*-
!!!BillboardChartDate: 1968/07/20
!!!BillboardPeak: 1
!!!BillboardWeeksOnChart: 14
!!!COC: The Rascals
!!!ENC: Nathaniel Condit-Schultz
!!!EST: Awating manual error checking and editing.
!!!OTL: People Got To Be Free
!!!RDF**harte: Chris Harte's syntax, used by MIREX
!!!RDF**harmony: **recip + pitch class of root + harmonic quality
!!!RDF**leadinstrument: original McGill primary instrumentation annotation
!!!RDF**phrase: newline = linebreak in original McGill transcription
!!!RDF**timestamp: McGill audio timestamp in seconds
!!!RDT: 2017/01/12/
!!!SampleActualRank: 64
!!!SampleID#: 0191
!!!SampleTargetRank: 66
!!!MBID: c8e1a9e1-7519-4c23-8bf3-e3ee76fe19ab
